X:1
T:Crofton, 11.10.11.10
T:Crofton, 11.10.11.10
T:Edward, Lord Crofton, 1893
T:Public Domain Courtesy of the Cyber Hymnal™
C:Edward, Lord Crofton, 1893
Z:Public Domain
Z:Courtesy of the Cyber Hymnal™
%%score ( 1 2 ) ( 3 4 )
L:1/8
M:4/4
K:F
V:1 treble 
V:2 treble 
V:3 bass 
V:4 bass 
V:1
 C4 [CF]2 [CE]2 | [B,D]6 [CD]2 | [B,D]2 [DB]2 [CA]2 [DG]2 | [CF]4 [CE]4 | [A,F]4 [_E^F]2 [DF]2 | %5
 [DG]6 [DG]2 | [D^G]2 [FG]2 [EG]2 [DG]2 | A8 | [EA]4 [EG]2 [CE]2 | [CF]4 [Fc]4 | %10
 [^Fd]2 [Fc]2 [FB]2 [FA]2 | [^Fc]4 [GB]4 | [Gd]4 [Ge]2 [Gd]2 | [Gc]2 [_EA]2 [DB]2 D2 | %14
 [EA]4 [EG]4 | [CF]8 |] %16
V:2
 C4 x4 | x8 | x8 | x8 | x8 | x8 | x8 | (D4 ^C4) | x8 | x8 | x8 | x8 | x8 | x6 D2 | x8 | x8 |] %16
V:3
 [F,A,]4 [A,,F,]2 [A,,F,]2 | [B,,F,]6 [A,,^F,]2 | [G,,G,]2 (D,E,) [A,,^F,]2 [B,,G,]2 | %3
 [C,A,]4 [C,E,]4 | [D,F,]4 [C,A,]2 [C,A,]2 | (D4 B,2) [B,,G,]2 | %6
 [B,,F,]2 [B,,D,]2 [B,,E,]2 [B,,F,]2 | (F,4 E,4) | [C,C]4 [B,,C]2 [B,,G,]2 | [A,,F,]4 [_E,A,]4 | %10
 [D,A,]2 [D,A,]2 [D,D]2 [D,C]2 | [G,A,]4 [G,B,]4 | [F,=B,]4 [F,B,]2 [F,B,]2 | %13
 [E,C]2 [^F,C]2 [G,B,]2 [G,,B,]2 | [C,C]4 [C,B,]4 | [F,A,]8 |] %16
V:4
 x8 | x8 | x2 G,,2 x4 | x8 | x8 | B,,6 x2 | x8 | A,,8 | x8 | x8 | x8 | x8 | x8 | x8 | x8 | x8 |] %16

